static/images/icon-ai-optimization.svg

<svg width="33" height="33" viewBox="0 0 33 33" fill="none" xmlns="http://www.w3.org/2000/svg">
<path d="M0.868423 5.4H20.0601C20.4638 7.45137 22.2177 9 24.3158 9C26.4122 9 28.1677 7.45137 28.5714 5.4H32.1316C32.6099 5.4 33 4.9957 33 4.5C33 4.0043 32.6099 3.6 32.1316 3.6H28.5714C28.1677 1.54863 26.4139 0 24.3158 0C22.2194 0 20.4638 1.54863 20.0601 3.6H0.868423C0.390096 3.6 0 4.0043 0 4.5C0 4.9957 0.390113 5.4 0.868423 5.4ZM24.3159 1.8C25.7525 1.8 26.9211 3.01113 26.9211 4.5C26.9211 5.98887 25.7525 7.2 24.3159 7.2C22.8792 7.2 21.7106 5.98887 21.7106 4.5C21.7106 3.01113 22.8792 1.8 24.3159 1.8Z" fill="black"/>
<path d="M32.1316 15.2H14.2424C13.8388 13.3766 12.0849 12 9.98681 12C7.89038 12 6.13486 13.3766 5.73117 15.2H0.868426C0.390097 15.2 0 15.5594 0 16C0 16.4406 0.390114 16.8 0.868426 16.8H5.73117C6.13486 18.6234 7.88869 20 9.98681 20C12.0832 20 13.8388 18.6234 14.2424 16.8H32.1316C32.6099 16.8 33 16.4406 33 16C33 15.5594 32.6099 15.2 32.1316 15.2ZM9.98672 18.4C8.55008 18.4 7.38144 17.3234 7.38144 16C7.38144 14.6766 8.55008 13.6 9.98672 13.6C11.4234 13.6 12.592 14.6766 12.592 16C12.592 17.3234 11.4234 18.4 9.98672 18.4Z" fill="black"/>
<path d="M32.1316 27.6H24.6635C24.2599 25.5486 22.506 24 20.4079 24C18.3115 24 16.556 25.5486 16.1523 27.6H0.868426C0.390097 27.6 0 28.0043 0 28.5C0 28.9957 0.390114 29.4 0.868426 29.4H16.1523C16.556 31.4514 18.3098 33 20.4079 33C22.5043 33 24.2599 31.4514 24.6635 29.4H32.1316C32.6099 29.4 33 28.9957 33 28.5C33 28.0043 32.6099 27.6 32.1316 27.6ZM20.4078 31.2C18.9712 31.2 17.8026 29.9889 17.8026 28.5C17.8026 27.0111 18.9712 25.8 20.4078 25.8C21.8445 25.8 23.0131 27.0111 23.0131 28.5C23.0131 29.9889 21.8445 31.2 20.4078 31.2Z" fill="black"/>
</svg>

<svg xmlns="http://www.w3.org/2000/svg" width="33" height="33" fill="none" viewBox="0 0 33 33"><path fill="#000" d="M.9 5.4H20c.4 2 2.1 3.6 4.2 3.6s3.9-1.5 4.3-3.6H32q.8 0 .9-.9t-.9-.9h-3.5c-.4-2-2.2-3.6-4.3-3.6A4.4 4.4 0 0 0 20 3.6H.9q-.8 0-.9.9t.9.9m23.4-3.6C25.8 1.8 27 3 27 4.5s-1.1 2.7-2.6 2.7a3 3 0 0 1-2.6-2.7c0-1.5 1.2-2.7 2.6-2.7m7.7 13.4H14.2A4 4 0 0 0 10 12a4 4 0 0 0-4.3 3.2H1q-.8.1-.9.8t.9.8h4.8A4 4 0 0 0 10 20c2 0 3.8-1.4 4.2-3.2h18q.7-.1.8-.8 0-.7-.9-.8M10 18.4c-1.4 0-2.6-1-2.6-2.4s1.2-2.4 2.6-2.4 2.6 1 2.6 2.4-1.2 2.4-2.6 2.4m22.1 9.2h-7.4c-.4-2-2.2-3.6-4.3-3.6a4.4 4.4 0 0 0-4.2 3.6H.9q-.8 0-.9.9t.9.9h15.3c.4 2 2.1 3.6 4.2 3.6s3.9-1.5 4.3-3.6H32q.8 0 .9-.9t-.9-.9m-11.7 3.6a3 3 0 0 1-2.6-2.7c0-1.5 1.2-2.7 2.6-2.7S23 27 23 28.5s-1.2 2.7-2.6 2.7"/></svg>
